src/lib/packages/icons/src/assets/filled/caret-up-circle.svg

<svg width="24" height="24" viewBox="0 0 24 24" fill="none" xmlns="http://www.w3.org/2000/svg">
<path d="M12 2C6.477 2 2 6.477 2 12C2 17.523 6.477 22 12 22C17.523 22 22 17.523 22 12C22 6.477 17.523 2 12 2ZM15.0991 14.167H8.90088C8.13688 14.167 7.72091 13.281 8.21191 12.699L11.1321 9.23706C11.5851 8.70006 12.4149 8.70006 12.8679 9.23706L15.7881 12.699C16.2791 13.28 15.8631 14.167 15.0991 14.167Z" fill="currentColor"/>
</svg>

<svg xmlns="http://www.w3.org/2000/svg" width="24" height="24" fill="none"><path fill="currentColor" d="M12 2C6.477 2 2 6.477 2 12s4.477 10 10 10 10-4.477 10-10S17.523 2 12 2Zm3.1 12.167H8.9c-.763 0-1.18-.886-.688-1.468l2.92-3.462a1.137 1.137 0 0 1 1.736 0l2.92 3.462c.491.581.075 1.468-.689 1.468Z"/></svg>
